X: 1
T: Last Pint, The
M: 4/4
L: 1/8
R: hornpipe
K: Gmaj
|:~G3E DEGA|BGAB AGED|~G3E DEGA|BGAB A3z|
~G3E DEGA|BGAB AGED|GABG BcAG|FDEF AGGF:||
|:GBdG BdGB|cBAG BGGF|GBdG BdGB|cBAG FDEF|
GBdG BdGB|cBAG BGGF|~G3E DEGA|BGAB A4:||
